dist/icons/svgs/location-crosshairs-slash-solid.svg

<svg xmlns="http://www.w3.org/2000/svg" width="24" height="24" fill="currentcolor" class="icon-location-crosshairs-slash-solid" viewBox="0 0 24 24">
  <path d="M2.48459 2.23438L8.18771 6.6875C9.28146 5.63281 10.6877 4.89062 12.2502 4.61719V3.25C12.2502 2.58594 12.7971 2 13.5002 2C14.1643 2 14.7502 2.58594 14.7502 3.25V4.61719C17.8752 5.16406 20.3361 7.625 20.883 10.75H22.2502C22.9143 10.75 23.5002 11.3359 23.5002 12C23.5002 12.7031 22.9143 13.25 22.2502 13.25H20.883C20.7268 14.1875 20.3752 15.0859 19.9065 15.8672L25.6096 20.3594C26.0393 20.6719 26.1174 21.2578 25.7658 21.6484C25.4533 22.0781 24.8674 22.1562 24.4768 21.8047L1.35177 3.67969C0.922087 3.36719 0.843962 2.78125 1.19552 2.39062C1.50802 1.96094 2.09396 1.88281 2.48459 2.23438ZM10.1799 8.25L11.7033 9.42188C12.2111 9.10938 12.8361 8.875 13.5002 8.875C15.219 8.875 16.6252 10.2812 16.6252 12C16.6252 12.3906 16.5471 12.7812 16.3908 13.1328L17.9143 14.3047C18.2658 13.6406 18.5002 12.8594 18.5002 12C18.5002 9.26562 16.2346 7 13.5002 7C12.2111 7 11.0783 7.46875 10.1799 8.25ZM17.1721 18.5234C16.4299 18.9531 15.6096 19.2656 14.7502 19.4219V20.75C14.7502 21.4531 14.1643 22 13.5002 22C12.7971 22 12.2502 21.4531 12.2502 20.75V19.4219C9.08615 18.875 6.62521 16.4141 6.07834 13.2891H4.75021C4.04709 13.2891 3.50021 12.7031 3.50021 12.0391C3.50021 11.3359 4.04709 10.7891 4.75021 10.7891H6.07834C6.1174 10.4766 6.19552 10.2031 6.27365 9.92969L8.50021 11.6875C8.50021 11.8047 8.50021 11.9219 8.50021 12C8.50021 14.7734 10.7268 17 13.5002 17C14.008 17 14.5158 16.9219 14.9846 16.8047L17.1721 18.5234Z"/>
</svg>

<svg xmlns="http://www.w3.org/2000/svg" width="24" height="24" fill="currentColor" class="icon-location-crosshairs-slash-solid" viewBox="0 0 24 24">
  <path d="m2.485 2.234 5.703 4.454a7.8 7.8 0 0 1 4.062-2.07V3.25c0-.664.547-1.25 1.25-1.25.664 0 1.25.586 1.25 1.25v1.367a7.56 7.56 0 0 1 6.133 6.133h1.367c.664 0 1.25.586 1.25 1.25 0 .703-.586 1.25-1.25 1.25h-1.367a7.6 7.6 0 0 1-.976 2.617l5.703 4.492c.43.313.507.899.156 1.29-.313.43-.899.507-1.29.156L1.353 3.68c-.43-.313-.508-.899-.156-1.29.312-.43.898-.507 1.289-.156M10.18 8.25l1.523 1.172c.508-.313 1.133-.547 1.797-.547A3.134 3.134 0 0 1 16.625 12c0 .39-.078.781-.234 1.133l1.523 1.172A4.9 4.9 0 0 0 18.5 12c0-2.734-2.265-5-5-5a5 5 0 0 0-3.32 1.25m6.992 10.273a7.5 7.5 0 0 1-2.422.899v1.328c0 .703-.586 1.25-1.25 1.25-.703 0-1.25-.547-1.25-1.25v-1.328a7.56 7.56 0 0 1-6.172-6.133H4.75c-.703 0-1.25-.586-1.25-1.25 0-.703.547-1.25 1.25-1.25h1.328c.04-.312.118-.586.196-.86L8.5 11.688V12c0 2.773 2.227 5 5 5 .508 0 1.016-.078 1.485-.195z"/>
</svg>
